svg/core/pcb/xl4016_da39401d3aec6aea0d50ab1b250a8cbe_1_pcb.svg

<svg width=".42in" height=".845in" baseProfile="tiny" version="1.2" viewBox="0 0 42000 84500" xmlns="http://www.w3.org/2000/svg">
 <desc>
  <referenceFile>TO220-5.svg</referenceFile>
 </desc>
 <title>TO220.fp</title>
 <desc>Geda footprint file 'TO220.fp' converted by Fritzing</desc>
 <metadata>
  <rdf:RDF xmlns:rdf="http://www.w3.org/1999/02/22-rdf-syntax-ns#">
   <rdf:Description rdf:about="" xmlns:rdf="http://www.w3.org/1999/02/22-rdf-syntax-ns#">
    <fz:attr name="geda filename" xmlns:fz="http://fritzing.org/gedametadata/1.0/">TO220.fp</fz:attr>
    <fz:attr name="fritzing version" xmlns:fz="http://fritzing.org/gedametadata/1.0/">0.4.0b.06.21.4282</fz:attr>
    <fz:attr name="conversion date" xmlns:fz="http://fritzing.org/gedametadata/1.0/">27/06/2010 07:16:38</fz:attr>
    <fz:attr name="dist-license" xmlns:fz="http://fritzing.org/gedametadata/1.0/">GPL</fz:attr>
    <fz:attr name="use-license" xmlns:fz="http://fritzing.org/gedametadata/1.0/">unlimited</fz:attr>
    <fz:attr name="author" xmlns:fz="http://fritzing.org/gedametadata/1.0/">gEDA project</fz:attr>
    <fz:attr name="license-url" xmlns:fz="http://fritzing.org/gedametadata/1.0/">http://www.gnu.org/licenses/gpl.html</fz:attr>
   </rdf:Description>
  </rdf:RDF>
 </metadata>
 <g id="silkscreen" fill="none" stroke="#000" stroke-width="2e3" gorn="0.4">
  <line x1="1e3" x2="41000" y1="6e4" y2="6e4"/>
  <line x1="41000" x2="41000" y1="6e4" y2="24500"/>
  <line x1="41000" x2="1e3" y1="24500" y2="24500"/>
  <line x1="1e3" x2="1e3" y1="24500" y2="6e4"/>
  <line x1="1e3" x2="41000" y1="24500" y2="24500"/>
  <line x1="41000" x2="41000" y1="24500" y2="12000"/>
  <line x1="41000" x2="39500" y1="12000" y2="12000"/>
  <line x1="39500" x2="39500" y1="12000" y2="5e3"/>
  <line x1="39500" x2="41000" y1="5e3" y2="5e3"/>
  <line x1="41000" x2="41000" y1="5e3" y2="1e3"/>
  <line x1="41000" x2="1e3" y1="1e3" y2="1e3"/>
  <line x1="1e3" x2="1e3" y1="1e3" y2="5e3"/>
  <line x1="1e3" x2="2500" y1="5e3" y2="5e3"/>
  <line x1="2500" x2="2500" y1="5e3" y2="12000"/>
  <line x1="2500" x2="1e3" y1="12000" y2="12000"/>
  <line x1="1e3" x2="1e3" y1="12000" y2="24500"/>
 </g>
 <g id="copper1" gorn="0.5">
  <path id="connector6pin" d="m2e3 2e3h38000v57000h-38000m12000-46000a7e3 7e3 0 1 0 14000 0 7e3 7e3 0 1 0-14000 0" fill="#F7BD13" fill-rule="evenodd" gorn="0.5.0"/>
  <circle id="nonconn0" cx="21000" cy="13000" r="7e3" gorn="0.5.1"/>
  <g id="copper0" gorn="0.5.2">
   <path d="m5417 7e4a2250 4500 0 1 0 4500 0 2250 4500 0 1 0-4500 0zm0 0a2250 2250 0 1 0 4500 0 2250 2250 0 1 0-4500 0z" fill="#F7BD13" fill-rule="evenodd"/>
   <circle id="connector0pad" cx="7667" cy="7e4" r="2250" fill="none" stroke="#F7BD13" stroke-width="1e3" connectorname="1" gorn="0.5.2.1"/>
   <path d="m12083 7e4a2250 4500 0 1 0 4500 0 2250 4500 0 1 0-4500 0zm0 0a2250 2250 0 1 0 4500 0 2250 2250 0 1 0-4500 0z" fill="#F7BD13" fill-rule="evenodd"/>
   <circle id="connector1pad" cx="14333" cy="7e4" r="2250" fill="none" stroke="#F7BD13" stroke-width="1e3" connectorname="2" gorn="0.5.2.3"/>
   <path d="m18750 7e4a2250 4500 0 1 0 4500 0 2250 4500 0 1 0-4500 0zm0 0a2250 2250 0 1 0 4500 0 2250 2250 0 1 0-4500 0z" fill="#F7BD13" fill-rule="evenodd"/>
   <circle id="connector2pad" cx="21000" cy="7e4" r="2250" fill="none" stroke="#F7BD13" stroke-width="1e3" connectorname="3" gorn="0.5.2.5"/>
   <path d="m25417 7e4a2250 4500 0 1 0 4500 0 2250 4500 0 1 0-4500 0zm0 0a2250 2250 0 1 0 4500 0 2250 2250 0 1 0-4500 0z" fill="#F7BD13" fill-rule="evenodd"/>
   <circle id="connector3pad" cx="27667" cy="7e4" r="2250" fill="none" stroke="#F7BD13" stroke-width="1e3" connectorname="4" gorn="0.5.2.7"/>
   <path d="m32083 7e4a2250 4500 0 1 0 4500 0 2250 4500 0 1 0-4500 0zm0 0a2250 2250 0 1 0 4500 0 2250 2250 0 1 0-4500 0z" fill="#F7BD13" fill-rule="evenodd"/>
   <circle id="connector4pad" cx="34333" cy="7e4" r="2250" fill="none" stroke="#F7BD13" stroke-width="1e3" connectorname="5" gorn="0.5.2.9"/>
  </g>
 </g>
</svg>

<?xml version='1.0' encoding='UTF-8' standalone='no'?>
<svg xmlns="http://www.w3.org/2000/svg" y="0in" x="0in"  height="0.845in" version="1.2" viewBox="0 0 42000 84500" width="0.42in" baseProfile="tiny">
    <desc >
        <referenceFile >TO220-5.svg</referenceFile>
    </desc>
    <title >TO220.fp</title>
    <desc >Geda footprint file 'TO220.fp' converted by Fritzing</desc>
    <metadata >
        <rdf:RDF xmlns:rdf="http://www.w3.org/1999/02/22-rdf-syntax-ns#">
            <rdf:Description xmlns:rdf="http://www.w3.org/1999/02/22-rdf-syntax-ns#" rdf:about="">
                <fz:attr xmlns:fz="http://fritzing.org/gedametadata/1.0/" name="geda filename">TO220.fp</fz:attr>
                <fz:attr xmlns:fz="http://fritzing.org/gedametadata/1.0/" name="fritzing version">0.4.0b.06.21.4282</fz:attr>
                <fz:attr xmlns:fz="http://fritzing.org/gedametadata/1.0/" name="conversion date">27/06/2010 07:16:38</fz:attr>
                <fz:attr xmlns:fz="http://fritzing.org/gedametadata/1.0/" name="dist-license">GPL</fz:attr>
                <fz:attr xmlns:fz="http://fritzing.org/gedametadata/1.0/" name="use-license">unlimited</fz:attr>
                <fz:attr xmlns:fz="http://fritzing.org/gedametadata/1.0/" name="author">gEDA project</fz:attr>
                <fz:attr xmlns:fz="http://fritzing.org/gedametadata/1.0/" name="license-url">http://www.gnu.org/licenses/gpl.html</fz:attr>
            </rdf:Description>
        </rdf:RDF>
    </metadata>
    <g  gorn="0.4" id="silkscreen">
        <line y2="60000"  x1="1000" stroke="black" x2="41000" stroke-width="2000" fill="none" y1="60000"/>
        <line y2="24500"  x1="41000" stroke="black" x2="41000" stroke-width="2000" fill="none" y1="60000"/>
        <line y2="24500"  x1="41000" stroke="black" x2="1000" stroke-width="2000" fill="none" y1="24500"/>
        <line y2="60000"  x1="1000" stroke="black" x2="1000" stroke-width="2000" fill="none" y1="24500"/>
        <line y2="24500"  x1="1000" stroke="black" x2="41000" stroke-width="2000" fill="none" y1="24500"/>
        <line y2="12000"  x1="41000" stroke="black" x2="41000" stroke-width="2000" fill="none" y1="24500"/>
        <line y2="12000"  x1="41000" stroke="black" x2="39500" stroke-width="2000" fill="none" y1="12000"/>
        <line y2="5000"  x1="39500" stroke="black" x2="39500" stroke-width="2000" fill="none" y1="12000"/>
        <line y2="5000"  x1="39500" stroke="black" x2="41000" stroke-width="2000" fill="none" y1="5000"/>
        <line y2="1000"  x1="41000" stroke="black" x2="41000" stroke-width="2000" fill="none" y1="5000"/>
        <line y2="1000"  x1="41000" stroke="black" x2="1000" stroke-width="2000" fill="none" y1="1000"/>
        <line y2="5000"  x1="1000" stroke="black" x2="1000" stroke-width="2000" fill="none" y1="1000"/>
        <line y2="5000"  x1="1000" stroke="black" x2="2500" stroke-width="2000" fill="none" y1="5000"/>
        <line y2="12000"  x1="2500" stroke="black" x2="2500" stroke-width="2000" fill="none" y1="5000"/>
        <line y2="12000"  x1="2500" stroke="black" x2="1000" stroke-width="2000" fill="none" y1="12000"/>
        <line y2="24500"  x1="1000" stroke="black" x2="1000" stroke-width="2000" fill="none" y1="12000"/>
    </g>
    <g  gorn="0.5" id="copper1">
        <path  fill-rule="evenodd" gorn="0.5.0" d="M2000,2000 40000,2000 40000,59000 2000,59000 M14000,13000 a7000,7000 0 1,0 14000,0 a7000,7000 0 1,0 -14000,0" id="connector6pin" fill="#ff9400"/>
        <circle cx="21000"  gorn="0.5.1" cy="13000" id="nonconn0" fill="#000000" r="7000"/>
        <g  gorn="0.5.2" id="copper0">
            <path  fill-rule="evenodd" d="M5417,70000a2250,4500 0 1,0 4500,0a2250,4500 0 1,0 -4500,0 Z M5417,70000a2250,2250 0 1,0 4500,0a2250,2250 0 1,0 -4500,0 Z" fill="#ff9400"/>
            <circle cx="7667"  stroke="#ff9400" gorn="0.5.2.1" cy="70000" stroke-width="1000" id="connector0pad" fill="none" connectorname="1" r="2250"/>
            <path  fill-rule="evenodd" d="M12083,70000a2250,4500 0 1,0 4500,0a2250,4500 0 1,0 -4500,0 Z M12083,70000a2250,2250 0 1,0 4500,0a2250,2250 0 1,0 -4500,0 Z" fill="#ff9400"/>
            <circle cx="14333"  stroke="#ff9400" gorn="0.5.2.3" cy="70000" stroke-width="1000" id="connector1pad" fill="none" connectorname="2" r="2250"/>
            <path  fill-rule="evenodd" d="M18750,70000a2250,4500 0 1,0 4500,0a2250,4500 0 1,0 -4500,0 Z M18750,70000a2250,2250 0 1,0 4500,0a2250,2250 0 1,0 -4500,0 Z" fill="#ff9400"/>
            <circle cx="21000"  stroke="#ff9400" gorn="0.5.2.5" cy="70000" stroke-width="1000" id="connector2pad" fill="none" connectorname="3" r="2250"/>
            <path  fill-rule="evenodd" d="M25417,70000a2250,4500 0 1,0 4500,0a2250,4500 0 1,0 -4500,0 Z M25417,70000a2250,2250 0 1,0 4500,0a2250,2250 0 1,0 -4500,0 Z" fill="#ff9400"/>
            <circle cx="27667"  stroke="#ff9400" gorn="0.5.2.7" cy="70000" stroke-width="1000" id="connector3pad" fill="none" connectorname="4" r="2250"/>
            <path  fill-rule="evenodd" d="M32083,70000a2250,4500 0 1,0 4500,0a2250,4500 0 1,0 -4500,0 Z M32083,70000a2250,2250 0 1,0 4500,0a2250,2250 0 1,0 -4500,0 Z" fill="#ff9400"/>
            <circle cx="34333"  stroke="#ff9400" gorn="0.5.2.9" cy="70000" stroke-width="1000" id="connector4pad" fill="none" connectorname="5" r="2250"/>
        </g>
    </g>
</svg>
